X:1
T:Es kennt der Herr die Seinen
T:Es kennt der Herr die Seinen
T:For NREC 2019
T:Mendelssohn Bartholdy
T:J.K.P. Spitta
C:Mendelssohn Bartholdy
Z:J.K.P. Spitta
%%score 1 [ ( 2 3 ) ( 4 5 ) ]
L:1/8
Q:1/4=110
M:4/4
K:A
V:1 treble transpose=24 nm="Glockenspiel" snm="Glock."
V:2 treble nm="Violin I"
V:3 treble 
V:4 bass nm="Violoncello"
V:5 bass 
V:1
 z2 | E4 A2 G2 | G4 A2 z2 | D4 E2 G2 | A2 GF E4 | E4 A2 G2 | A2 c2 e2 z2 | G6 G2 | A4 z4 | %9
 BDAD GDFD | (C2 ^E2) F2 C2 | ^D4 E2 F2 | F2 EF G4 | E4 A2 G2 | G4 A2 z2 | D4 E2 G2 | A2 GF E4 | %17
 E4 A2 G2 | A2 c2 e2 z2 | z2 E4 G2 | !fermata!A4 z4 |] %21
V:2
 E2 | e3 d c2 B2 | B4 A2 A2 | B2 B2 B2 AB | c4 z2 c2 | d3 B A2 G2 | A4 E2 c2 | d3 B A2 G2 | %8
 A4 z2 c2 | B2 A2 G2 F2 | (^E2 G2) F2 c2 | B3 A G2 F2 | (F4 E2) E2 | e3 d c2 B2 | B4 A2 A2 | %15
 B2 B2 B2 AB | c4 z2 c2 | d3 B A2 G2 | A4 E2 c2 | d3 B A2 G2 | !fermata!A6 z2 |] %21
V:3
 E2 | E3 F E2 G2 | G4 F2 F2 | F2 F2 G2 FG | A4 x2 E2 | E3 E E2 E2 | E4 C2 E2 | E3 E E2 D2 | %8
 C4 x2 E2 | F2 E2 D2 C2 | C4 C2 F=E | ^D3 F E2 D2 | ^D4 E2 E2 | E3 F E2 G2 | G4 F2 F2 | %15
 F2 F2 G2 FG | A4 x2 E2 | E3 E E2 E2 | E4 C2 E2 | F3 F E2 E2 | E6 x2 |] %21
V:4
 E,2 | A,3 A, A,2 D2 | D4 C2 C2 | B,2 B,2 D2 CD | C4 z2 A,2 | B,3 D C2 B,2 | C4 A,2 A,2 | %7
 B,3 D C2 B,2 | A,4 z2 A,2 | D2 C2 B,2 A,2 | (G,2 B,2) A,2 A,2 | B,3 B, B,2 A,2 | (A,4 G,2) G,2 | %13
 A,3 A, A,2 D2 | D4 C2 C2 | B,2 B,2 D2 CD | C4 z2 A,2 | B,3 D C2 B,2 | C4 A,2 A,2 | A,3 D C2 B,2 | %20
 C6 z2 |] %21
V:5
 E,2 | C,3 D, E,2 E,2 | F,4 F,2 F,2 | D,2 D,2 E,3 E, | A,,4 x2 A,2 | E,3 E, E,2 E,2 | %6
 A,,4 A,,2 A,2 | E,3 E, E,2 E,2 | A,,4 x2 z2 | x8 | x8 | x8 | x6 E,2 | C,3 D, E,2 E,2 | %14
 F,4 F,2 F,2 | D,2 D,2 E,3 E, | A,,4 x2 A,2 | E,3 E, E,2 E,2 | A,,4 A,,2 A,,2 | D,3 D, E,2 E,2 | %20
 A,,6 x2 |] %21

